X: 1
T:Polska e. Bengt Bixo
A:M\"orsil, J\"amtland
O:Sweden
M:3/4
R:Polska
K:G
vd2g2 gb| (3agf g4| d2g2 gb| ag fg (3a(gf)|\
g2 f{gf}e fg| a>g f>g e(g/e/)|
(ed) d>g g>b| (3a(gf) g4 ::\
vB2 dB/d/ cB| AB c(d/c/) B(d/B/)|
AB cB AG| (DG) .B.G (DG)|\
B2 dB/d/ cB| AB c(d/c/) B(d/B/)| (3A(Bd) (3c(BA) BG| (fa) g4:|
